packages/ckeditor5-ui/theme/icons/project-logo.svg

<svg width="53" height="10" viewBox="0 0 53 10" fill="none" xmlns="http://www.w3.org/2000/svg">
<g clip-path="url(#clip0_31_21)">
<path d="M31.7235 1.49218C31.7235 1.73603 31.729 1.97428 31.74 2.20695C31.7469 2.3561 31.7573 2.5043 31.7687 2.65197C31.5591 2.50322 31.3273 2.38862 31.0819 2.31242C30.7249 2.20131 30.3532 2.14524 29.9794 2.14613C29.5837 2.13285 29.1911 2.22054 28.8387 2.40092C28.5108 2.59652 28.2667 2.90638 28.1533 3.27098C28.0033 3.68101 27.9282 4.25175 27.9282 4.98315C27.9282 5.92159 28.0763 6.64195 28.3724 7.14423C28.6685 7.64651 29.1639 7.89767 29.8587 7.89779C30.3108 7.91283 30.7584 7.80359 31.1528 7.58203C31.4485 7.40791 31.71 7.18123 31.9243 6.91319L32.0632 7.76495H33.3464V0.00701904H31.7231L31.7235 1.49218ZM30.9996 6.49603C30.8388 6.53951 30.6726 6.56007 30.506 6.55707C30.3237 6.56475 30.1431 6.52047 29.9849 6.42951C29.8312 6.31711 29.7254 6.15091 29.6887 5.96403C29.6163 5.63859 29.585 5.30539 29.5956 4.97215C29.5841 4.61851 29.6173 4.26487 29.6943 3.91954C29.7307 3.72675 29.8408 3.55574 30.0013 3.44291C30.1703 3.35451 30.3597 3.3125 30.5503 3.32112C30.7837 3.31717 31.0165 3.34699 31.2414 3.40966C31.3881 3.45369 31.5489 3.5017 31.7239 3.5537V6.10719C31.6134 6.18299 31.5105 6.25043 31.417 6.30775C31.2868 6.38871 31.1465 6.45203 30.9996 6.49603Z" fill="#1C2331"/>
<path d="M35.6799 1.89637e-05L34.9779 0.00441472C34.6562 0.00646076 34.4964 0.172013 34.4986 0.501048L34.5022 1.08231C34.5043 1.41148 34.6662 1.575 34.9878 1.57285L35.6898 1.56846C36.0115 1.56641 36.1714 1.40087 36.1694 1.07184L36.1658 0.49056C36.1637 0.161489 36.0018 -0.00202706 35.6799 1.89637e-05Z" fill="#1C2331"/>
<path d="M36.1451 2.31329L34.5327 2.32352L34.5672 7.80538L36.1796 7.79518L36.1451 2.31329Z" fill="#1C2331"/>
<path d="M39.6228 0.789062L37.9886 0.799291L38.001 2.30747L37.0547 2.36282L37.061 3.37192L38.0095 3.36594L38.0341 6.3494C38.0371 6.82496 38.1766 7.19336 38.4525 7.4546C38.7284 7.71584 39.1114 7.84508 39.6014 7.84228C39.7328 7.84148 39.8936 7.83132 40.0836 7.81192C40.2736 7.79248 40.4636 7.76568 40.6536 7.73148C40.8168 7.70396 40.978 7.66448 41.1356 7.61328L40.9528 6.51752L40.2508 6.52192C40.0888 6.53808 39.9266 6.4942 39.7948 6.39864C39.7437 6.34188 39.7048 6.27512 39.6808 6.2026C39.6566 6.13004 39.6479 6.05328 39.6552 5.97716L39.6387 3.35586L41.1524 3.34629L41.1456 2.28209L39.632 2.29161L39.6228 0.789062Z" fill="#1C2331"/>
<path d="M46.226 2.38789C45.8156 2.20375 45.27 2.11383 44.59 2.11813C43.9172 2.12239 43.3748 2.21914 42.9632 2.4084C42.5612 2.5869 42.2432 2.9128 42.0748 3.31888C41.8944 3.73688 41.8068 4.29685 41.8112 4.99881C41.8152 5.68589 41.9104 6.23737 42.0956 6.65333C42.2684 7.05661 42.5912 7.37705 42.9956 7.54717C43.4096 7.72729 43.9532 7.81529 44.6256 7.81113C45.306 7.80685 45.8504 7.71201 46.2584 7.52665C46.6576 7.35069 46.9724 7.02601 47.136 6.62165C47.3124 6.20361 47.3988 5.65097 47.394 4.96369C47.3896 4.26169 47.2968 3.70286 47.1148 3.28718C46.9456 2.88417 46.6272 2.56204 46.226 2.38789ZM45.6128 5.99525C45.5932 6.09713 45.5532 6.19401 45.4952 6.28013C45.4372 6.36625 45.3628 6.43977 45.2756 6.49641C45.0684 6.58817 44.8448 6.63629 44.6184 6.63773C44.3916 6.63917 44.1676 6.59389 43.9592 6.50473C43.8716 6.44925 43.796 6.37665 43.7368 6.29129C43.678 6.20593 43.6368 6.10949 43.6164 6.00781C43.5384 5.67381 43.5028 5.33129 43.5108 4.98841C43.4984 4.64213 43.5292 4.29565 43.6032 3.95714C43.6232 3.85478 43.6632 3.75739 43.7212 3.67069C43.7792 3.5838 43.8532 3.50918 43.94 3.4511C44.146 3.35582 44.37 3.30578 44.5972 3.30431C44.8244 3.30288 45.0492 3.35012 45.2564 3.44282C45.344 3.49983 45.4192 3.57352 45.478 3.65965C45.5368 3.74586 45.578 3.84273 45.5996 3.94482C45.6776 4.28241 45.7128 4.62841 45.7048 4.97477C45.7168 5.31753 45.686 5.66025 45.6128 5.99525Z" fill="#1C2331"/>
<path d="M52.1144 2.07034C51.7224 2.07899 51.3372 2.17385 50.986 2.34818C50.5956 2.53937 50.2344 2.78541 49.9136 3.07883L49.7568 2.23187L48.4844 2.23985L48.5196 7.81241L50.1428 7.80217L50.1192 4.02216C50.4696 3.89819 50.7652 3.8027 51.006 3.7357C51.2664 3.66136 51.5352 3.62181 51.806 3.61806L52.2556 3.61524L52.3996 2.06876L52.1144 2.07034Z" fill="#1C2331"/>
<path d="M22.0826 7.42599C21.5574 6.58215 21.0323 5.73831 20.5072 4.89447C20.4558 4.80603 20.3982 4.72139 20.3347 4.64123C20.2442 4.53407 20.1424 4.43699 20.031 4.35163C20.0418 4.33495 20.0561 4.32075 20.0729 4.31007C20.2001 4.20263 20.3108 4.07711 20.4015 3.93749C20.9844 3.03417 21.5674 2.13088 22.1505 1.22763C22.1604 1.21228 22.1758 1.19909 22.175 1.17909C22.165 1.16886 22.1539 1.17233 22.1439 1.17223C21.5926 1.17162 21.0413 1.17075 20.4901 1.16962C20.4745 1.16885 20.4592 1.17272 20.4459 1.18072C20.4325 1.18871 20.4218 1.20051 20.4152 1.21459C20.1262 1.67648 19.8367 2.13802 19.5467 2.59923C19.3171 2.96532 19.0867 3.33069 18.859 3.6978C18.849 3.71833 18.8328 3.73517 18.8126 3.74593C18.7925 3.75666 18.7695 3.76078 18.747 3.75769C18.6494 3.75257 18.5513 3.75657 18.4533 3.7559C18.4351 3.7559 18.4153 3.76219 18.398 3.74863C18.3997 3.72951 18.4003 3.71018 18.4031 3.6913C18.4361 3.45892 18.4513 3.22436 18.4485 2.98967V1.20349C18.4485 1.18277 18.4405 1.17121 18.4185 1.17213H18.3864L16.9301 1.17085C16.8461 1.17085 16.8566 1.16098 16.8566 1.24661V7.69287C16.8566 7.70795 16.8573 7.72287 16.8566 7.73783C16.8556 7.75623 16.8629 7.76555 16.8822 7.76499H18.3765C18.4593 7.76499 18.4484 7.77183 18.4484 7.69379V5.50455C18.4484 5.44923 18.4455 5.39375 18.4437 5.33823C18.4361 5.19819 18.4197 5.05871 18.3947 4.92071H18.4539C18.5583 4.92071 18.6627 4.92343 18.7668 4.91947C18.7843 4.91767 18.8018 4.92151 18.8169 4.93047C18.832 4.93947 18.8438 4.95311 18.8505 4.96935C19.3859 5.88151 19.9217 6.79343 20.4579 7.70503C20.4667 7.72475 20.4814 7.74123 20.4999 7.75223C20.5184 7.76327 20.5399 7.76827 20.5613 7.76663C21.1146 7.76427 21.6681 7.76515 22.2215 7.76503C22.242 7.76503 22.2621 7.76335 22.2898 7.76211C22.2811 7.74679 22.2764 7.73819 22.2711 7.72963L22.0826 7.42599Z" fill="#1C2331"/>
<path d="M27.1116 6.55456C27.1068 6.475 27.1084 6.475 27.0301 6.475H24.6163C24.5631 6.47532 24.51 6.47156 24.4574 6.4638C24.3997 6.459 24.3449 6.43632 24.3007 6.39896C24.2566 6.36152 24.2252 6.31124 24.2109 6.25512C24.1966 6.20612 24.189 6.15536 24.1885 6.10432C24.1885 5.72344 24.1882 5.34256 24.1875 4.96168C24.1875 4.92996 24.194 4.91328 24.2291 4.91788C24.244 4.91884 24.259 4.91884 24.2739 4.91788H26.6877C26.7026 4.91788 26.7177 4.91664 26.7327 4.91788C26.7619 4.9208 26.7699 4.90588 26.7675 4.87988C26.7665 4.86708 26.7675 4.85428 26.7675 4.84172V3.8141C26.7675 3.72545 26.7803 3.73568 26.6908 3.73568H24.2514C24.1803 3.73568 24.1889 3.73937 24.1889 3.67518V2.83901C24.189 2.79223 24.1932 2.74556 24.2016 2.69953C24.2092 2.63765 24.237 2.58 24.2807 2.53549C24.3243 2.49095 24.3814 2.46199 24.4431 2.45308C24.4911 2.4444 24.5399 2.44065 24.5887 2.44188H27.0282C27.0431 2.44188 27.058 2.44076 27.0729 2.44188C27.0971 2.44388 27.1083 2.43313 27.1091 2.4095C27.1091 2.39671 27.1115 2.38393 27.1123 2.37135C27.1221 2.20586 27.1319 2.04026 27.1415 1.87456C27.1528 1.69196 27.1658 1.50961 27.1764 1.32726C27.1812 1.24158 27.1791 1.23979 27.0939 1.23273C26.8757 1.21483 26.6569 1.19498 26.4392 1.18234C26.2215 1.16971 26.0012 1.16137 25.7821 1.15677C25.1969 1.14446 24.6116 1.13919 24.0262 1.14096C23.8667 1.1402 23.7079 1.16188 23.5545 1.20536C23.3802 1.25114 23.2175 1.33306 23.0769 1.44578C22.9364 1.55854 22.8211 1.6996 22.7385 1.85979C22.6392 2.056 22.5892 2.27349 22.5929 2.49339C22.5921 3.14659 22.5921 3.79969 22.5929 4.45272V6.3676C22.5923 6.43988 22.5961 6.51216 22.6041 6.584C22.6238 6.80228 22.6997 7.01176 22.8243 7.19204C22.9489 7.37236 23.1181 7.51732 23.3154 7.6128C23.5429 7.72552 23.7948 7.78 24.0486 7.77136C24.8061 7.76624 25.5639 7.77348 26.3207 7.72948C26.5948 7.7134 26.8686 7.69548 27.1419 7.67568C27.1705 7.67356 27.1835 7.66784 27.1808 7.635C27.1729 7.53116 27.1686 7.42704 27.1622 7.323C27.1441 7.06812 27.127 6.81144 27.1116 6.55456Z" fill="#1C2331"/>
<path d="M16.1391 7.41461C16.0969 7.05653 16.0548 6.69849 16.0129 6.34045C16.0095 6.31061 15.9995 6.29953 15.9695 6.30325C15.8957 6.31193 15.8219 6.32069 15.7479 6.32741C15.4895 6.35041 15.2306 6.36897 14.9715 6.37661C14.6354 6.38621 14.2994 6.39573 13.9633 6.39157C13.8465 6.39097 13.7301 6.37821 13.616 6.35349C13.4391 6.32313 13.2791 6.23001 13.1652 6.09121C13.0908 5.99181 13.0345 5.88005 12.999 5.76105C12.9265 5.50913 12.8842 5.24949 12.8727 4.98761C12.8546 4.73845 12.8555 4.48885 12.8579 4.23917C12.8581 3.95377 12.88 3.66879 12.9233 3.38669C12.9461 3.22889 12.9888 3.0746 13.0504 2.92751C13.0939 2.81735 13.1638 2.7195 13.2537 2.64245C13.3443 2.56496 13.4522 2.51046 13.5683 2.48357C13.6982 2.45161 13.8315 2.43564 13.9653 2.43605C14.5926 2.43461 15.22 2.43943 15.8473 2.48546C15.8688 2.48699 15.8798 2.48035 15.8827 2.46015C15.8841 2.44992 15.8847 2.43922 15.8859 2.42884C15.9058 2.24535 15.9257 2.06196 15.9456 1.87871C15.9647 1.70193 15.9824 1.52424 16.0029 1.34726C16.0067 1.31324 15.9977 1.30122 15.9636 1.29099C15.5681 1.17666 15.1613 1.10634 14.7504 1.08128C14.5151 1.0647 14.2784 1.06251 14.0423 1.06143C13.802 1.0581 13.5618 1.07177 13.3234 1.10234C13.1112 1.12985 12.9021 1.17689 12.6985 1.24286C12.392 1.33789 12.1143 1.50851 11.8911 1.73902C11.7057 1.93824 11.5616 2.17218 11.467 2.42735C11.3393 2.78062 11.2583 3.14908 11.2261 3.52336C11.1959 3.80867 11.1823 4.09549 11.1852 4.38237C11.1787 4.81309 11.2091 5.24357 11.2762 5.66909C11.3152 5.91981 11.3799 6.16585 11.4691 6.40341C11.5671 6.68157 11.7292 6.93281 11.9421 7.13689C12.1563 7.34221 12.4151 7.49504 12.6983 7.58344C13.0422 7.69384 13.4004 7.7534 13.7615 7.7602C14.2887 7.7814 14.8167 7.75352 15.3387 7.67688C15.5977 7.63372 15.8536 7.57393 16.1049 7.49785C16.135 7.48893 16.1523 7.47417 16.1423 7.44017C16.1405 7.43177 16.1395 7.42321 16.1391 7.41461Z" fill="#1C2331"/>
<path d="M6.01568 6.6904C5.79888 6.71736 5.58992 6.7886 5.40188 6.8998C5.17232 7.032 4.9796 7.21964 4.84132 7.44556C4.79788 7.51788 4.55484 7.98456 4.55484 7.98456L3.71875 9.51268L3.72759 9.51888C3.76646 9.54412 3.80778 9.56532 3.85092 9.58224C3.97765 9.62776 4.11096 9.65224 4.2456 9.65472C4.75124 9.67772 5.25704 9.64792 5.76276 9.6516C6.0526 9.6608 6.34272 9.65376 6.63172 9.63048C6.77088 9.62344 6.9064 9.58368 7.02732 9.51444C7.1514 9.44324 7.25796 9.34524 7.33936 9.22764C7.39488 9.14548 7.45272 9.0646 7.50304 8.97944C7.74356 8.57124 7.9828 8.16256 8.22076 7.75344C8.29572 7.62512 8.36912 7.49592 8.4428 7.36724C8.4798 7.30308 8.51816 7.23932 8.55536 7.17472C8.64956 7.018 8.70204 6.8398 8.7078 6.65704L7.4042 6.68012C7.4042 6.68012 6.14576 6.675 6.01568 6.6904Z" fill="#AFE229"/>
<path d="M2.84777 9.04367L3.60858 7.65327C3.60858 7.65327 3.69513 7.48699 3.79227 7.30223C3.66807 7.23511 3.54675 7.16243 3.42511 7.09107C3.07872 6.88815 2.71882 6.70831 2.38015 6.49211C2.28817 6.43691 2.20584 6.36703 2.13641 6.28523C2.02818 6.15087 2 5.99071 1.99156 5.82551C1.97064 5.41627 1.99043 5.00707 1.98333 4.59787C1.97995 4.40303 1.98333 4.20815 1.98578 4.01323C1.98987 3.69096 2.13923 3.46028 2.41314 3.30002C2.69096 3.13747 2.96857 2.97465 3.24598 2.81154C3.4662 2.68278 3.68679 2.55464 3.90776 2.42714C3.95845 2.39809 4.01284 2.37538 4.06576 2.35042C4.33784 2.22182 4.58496 2.30295 4.82572 2.43548C4.84104 2.44392 4.85544 2.45375 4.87032 2.46296C4.99296 2.52225 5.11248 2.5878 5.22836 2.65937C5.54612 2.83727 5.86324 3.0163 6.17976 3.19645C6.27512 3.25186 6.367 3.31305 6.45488 3.37967C6.64888 3.52366 6.709 3.72974 6.7214 3.95766C6.73676 4.24191 6.7278 4.52655 6.72652 4.81107C6.72552 5.09035 6.73068 5.36943 6.72756 5.64883C7.31865 5.64619 7.98585 5.64883 7.98585 5.64883L8.70897 5.63607C8.70621 5.34411 8.70225 5.05215 8.70217 4.76011C8.70217 4.23635 8.71685 3.71231 8.68641 3.18878C8.66201 2.76873 8.55053 2.38883 8.19373 2.12238C8.03221 1.99915 7.86333 1.88584 7.68805 1.78306C7.10633 1.44963 6.52376 1.11763 5.94032 0.787096C5.72208 0.663824 5.51304 0.523716 5.28228 0.4229C5.25496 0.405864 5.22836 0.387724 5.20044 0.372123C4.75808 0.126599 4.30452 -0.0247051 3.80654 0.210179C3.70961 0.255959 3.61007 0.297115 3.51733 0.350619C3.11263 0.582912 2.70909 0.817288 2.3067 1.05374C1.7984 1.351 1.29052 1.64887 0.783077 1.94735C0.281798 2.24065 0.0097242 2.66406 0.00450684 3.25766C0.00133549 3.61654 -0.00357667 3.97538 0.0040448 4.33415C0.0200038 5.08771 -0.0134481 5.84179 0.0277282 6.59499C0.044352 6.89931 0.0971901 7.19435 0.296575 7.44255C0.424304 7.59355 0.57574 7.72279 0.744961 7.82519C1.36731 8.22571 2.02839 8.55927 2.66495 8.93515C2.72596 8.97127 2.7869 9.00747 2.84777 9.04367Z" fill="#771BFF"/>
</g>
<defs>
<clipPath id="clip0_31_21">
<rect width="52.4" height="10" fill="white"/>
</clipPath>
</defs>
</svg>

<svg xmlns="http://www.w3.org/2000/svg" width="53" height="10" viewBox="0 0 53 10"><g clip-path="url(#a)"><path fill="#1C2331" d="M31.724 1.492a15.139 15.139 0 0 0 .045 1.16 2.434 2.434 0 0 0-.687-.34 3.68 3.68 0 0 0-1.103-.166 2.332 2.332 0 0 0-1.14.255 1.549 1.549 0 0 0-.686.87c-.15.41-.225.98-.225 1.712 0 .939.148 1.659.444 2.161.297.503.792.754 1.487.754.452.015.9-.094 1.294-.316.296-.174.557-.4.771-.669l.14.852h1.282V.007h-1.623v1.485ZM31 6.496a1.77 1.77 0 0 1-.494.061.964.964 0 0 1-.521-.127.758.758 0 0 1-.296-.466 3.984 3.984 0 0 1-.093-.992 4.208 4.208 0 0 1 .098-1.052.753.753 0 0 1 .307-.477 1.08 1.08 0 0 1 .55-.122c.233-.004.466.026.69.089l.483.144v2.553c-.11.076-.213.143-.307.2a1.73 1.73 0 0 1-.417.189ZM35.68 0l-.702.004c-.322.002-.482.168-.48.497l.004.581c.002.33.164.493.486.49l.702-.004c.322-.002.481-.167.48-.496L36.165.49c-.002-.33-.164-.493-.486-.491ZM36.145 2.313l-1.612.01.034 5.482 1.613-.01-.035-5.482ZM39.623.79 37.989.8 38 2.306l-.946.056.006 1.009.949-.006.024 2.983c.003.476.143.844.419 1.106.275.26.658.39 1.148.387.132 0 .293-.01.483-.03.19-.02.38-.046.57-.08.163-.028.324-.068.482-.119l-.183-1.095-.702.004a.664.664 0 0 1-.456-.123.553.553 0 0 1-.14-.422l-.016-2.621 1.513-.01-.006-1.064-1.514.01-.01-1.503ZM46.226 2.388c-.41-.184-.956-.274-1.636-.27-.673.004-1.215.101-1.627.29-.402.179-.72.505-.888.91-.18.419-.268.979-.264 1.68.004.688.1 1.24.285 1.655.172.404.495.724.9.894.414.18.957.268 1.63.264.68-.004 1.224-.099 1.632-.284.4-.176.714-.501.878-.905.176-.418.263-.971.258-1.658-.004-.702-.097-1.261-.28-1.677a1.696 1.696 0 0 0-.888-.9Zm-.613 3.607a.77.77 0 0 1-.337.501 1.649 1.649 0 0 1-1.317.009.776.776 0 0 1-.343-.497 4.066 4.066 0 0 1-.105-1.02 4.136 4.136 0 0 1 .092-1.03.786.786 0 0 1 .337-.507 1.59 1.59 0 0 1 1.316-.008.79.79 0 0 1 .344.502c.078.337.113.683.105 1.03.012.343-.019.685-.092 1.02ZM52.114 2.07a2.67 2.67 0 0 0-1.128.278c-.39.191-.752.437-1.072.73l-.157-.846-1.273.008.036 5.572 1.623-.01-.024-3.78c.35-.124.646-.22.887-.286.26-.075.53-.114.8-.118l.45-.003.144-1.546-.286.001ZM22.083 7.426l-1.576-2.532a2.137 2.137 0 0 0-.172-.253 1.95 1.95 0 0 0-.304-.29.138.138 0 0 1 .042-.04 1.7 1.7 0 0 0 .328-.374l1.75-2.71c.01-.015.025-.028.024-.048-.01-.01-.021-.007-.031-.007L20.49 1.17a.078.078 0 0 0-.075.045l-.868 1.384c-.23.366-.46.732-.688 1.099a.108.108 0 0 1-.112.06c-.098-.005-.196-.001-.294-.002-.018 0-.038.006-.055-.007.002-.02.002-.039.005-.058a4.6 4.6 0 0 0 .046-.701V1.203c0-.02-.009-.032-.03-.03h-.033L16.93 1.17c-.084 0-.073-.01-.073.076v6.491c-.001.018.006.028.025.027h1.494c.083 0 .072.007.072-.071v-2.19c0-.055-.003-.11-.004-.166a3.366 3.366 0 0 0-.05-.417h.06c.104 0 .209.002.313-.002a.082.082 0 0 1 .084.05c.535.913 1.07 1.824 1.607 2.736a.104.104 0 0 0 .103.062c.554-.003 1.107-.002 1.66-.002l.069-.003-.019-.032-.188-.304ZM27.112 6.555c-.005-.08-.004-.08-.082-.08h-2.414c-.053 0-.106-.003-.159-.011a.279.279 0 0 1-.246-.209.558.558 0 0 1-.022-.15c0-.382 0-.762-.002-1.143 0-.032.007-.049.042-.044h2.504c.029.003.037-.012.034-.038V3.814c0-.089.013-.078-.076-.078h-2.44c-.07 0-.062.003-.062-.06v-.837c0-.047.004-.093.013-.14a.283.283 0 0 1 .241-.246.717.717 0 0 1 .146-.011h2.484c.024.002.035-.009.036-.033l.003-.038.03-.496c.01-.183.024-.365.034-.548.005-.085.003-.087-.082-.094-.218-.018-.437-.038-.655-.05a17.845 17.845 0 0 0-.657-.026 72.994 72.994 0 0 0-1.756-.016 1.7 1.7 0 0 0-.471.064 1.286 1.286 0 0 0-.817.655c-.099.196-.149.413-.145.633v3.875c0 .072.003.144.011.216a1.27 1.27 0 0 0 .711 1.029c.228.113.48.167.734.158.757-.005 1.515.002 2.272-.042.274-.016.548-.034.82-.053.03-.002.043-.008.04-.041-.008-.104-.012-.208-.019-.312a69.964 69.964 0 0 1-.05-.768ZM16.14 7.415l-.127-1.075c-.004-.03-.014-.04-.044-.037a13.125 13.125 0 0 1-.998.073c-.336.01-.672.02-1.008.016-.116-.001-.233-.014-.347-.039a.746.746 0 0 1-.45-.262c-.075-.1-.132-.211-.167-.33a3.324 3.324 0 0 1-.126-.773 9.113 9.113 0 0 1-.015-.749c0-.285.022-.57.065-.852.023-.158.066-.312.127-.46a.728.728 0 0 1 .518-.443 1.64 1.64 0 0 1 .397-.048c.628-.001 1.255.003 1.882.05.022.001.033-.006.036-.026l.003-.031.06-.55c.019-.177.036-.355.057-.532.004-.034-.005-.046-.04-.056a5.595 5.595 0 0 0-1.213-.21 10.783 10.783 0 0 0-.708-.02c-.24-.003-.48.01-.719.041a3.477 3.477 0 0 0-.625.14 1.912 1.912 0 0 0-.807.497c-.185.2-.33.433-.424.688a4.311 4.311 0 0 0-.24 1.096c-.031.286-.045.572-.042.86-.006.43.024.86.091 1.286.04.25.104.497.193.734.098.279.26.53.473.734.214.205.473.358.756.446.344.11.702.17 1.063.177a8.505 8.505 0 0 0 1.578-.083 6.11 6.11 0 0 0 .766-.18c.03-.008.047-.023.037-.057a.157.157 0 0 1-.003-.025Z"/><path fill="#AFE229" d="M6.016 6.69a1.592 1.592 0 0 0-.614.21c-.23.132-.422.32-.56.546-.044.072-.287.539-.287.539l-.836 1.528.009.006c.038.025.08.046.123.063.127.046.26.07.395.073.505.023 1.011-.007 1.517-.003.29.009.58.002.869-.022a.886.886 0 0 0 .395-.116.962.962 0 0 0 .312-.286c.056-.083.114-.163.164-.249.24-.408.48-.816.718-1.226.075-.128.148-.257.222-.386l.112-.192a1.07 1.07 0 0 0 .153-.518l-1.304.023s-1.258-.005-1.388.01Z"/><path fill="#771BFF" d="m2.848 9.044.76-1.39.184-.352c-.124-.067-.245-.14-.367-.21-.346-.204-.706-.384-1.045-.6a.984.984 0 0 1-.244-.207c-.108-.134-.136-.294-.144-.46-.021-.409-.002-.818-.009-1.227-.003-.195 0-.39.003-.585.004-.322.153-.553.427-.713l.833-.488c.22-.13.44-.257.662-.385.05-.029.105-.052.158-.077.272-.128.519-.047.76.085l.044.028c.123.06.242.125.358.196.318.178.635.357.952.537.095.056.187.117.275.184.194.144.254.35.266.578.016.284.007.569.006.853-.001.28.004.558 0 .838.592-.003 1.259 0 1.259 0l.723-.013c-.003-.292-.007-.584-.007-.876 0-.524.015-1.048-.016-1.571-.024-.42-.135-.8-.492-1.067a5.02 5.02 0 0 0-.506-.339A400.52 400.52 0 0 0 5.94.787C5.722.664 5.513.524 5.282.423 5.255.406 5.228.388 5.2.373 4.758.126 4.305-.026 3.807.21c-.097.046-.197.087-.29.14A699.896 699.896 0 0 0 .783 1.948c-.501.294-.773.717-.778 1.31-.004.36-.009.718-.001 1.077.016.754-.017 1.508.024 2.261.016.304.07.6.269.848.127.15.279.28.448.382.622.4 1.283.734 1.92 1.11l.183.109Z"/></g><defs><clipPath id="a"><path fill="#fff" d="M0 0h52.4v10H0z"/></clipPath></defs></svg>
